material/.icons/material/sticker-check.svg

<svg xmlns="http://www.w3.org/2000/svg" viewBox="0 0 24 24"><path d="M18.5 2h-13C3.6 2 2 3.6 2 5.5v13C2 20.4 3.6 22 5.5 22H16l6-6V5.5C22 3.6 20.4 2 18.5 2M7 12.5l1.3-1.4 2.1 2.1L15.6 8 17 9.4 10.5 16 7 12.5m8 7.5v-1.5c0-1.9 1.6-3.5 3.5-3.5H20l-5 5z"/></svg>

<?xml version="1.0" encoding="UTF-8"?><!DOCTYPE svg PUBLIC "-//W3C//DTD SVG 1.1//EN" "http://www.w3.org/Graphics/SVG/1.1/DTD/svg11.dtd"><svg xmlns="http://www.w3.org/2000/svg" xmlns:xlink="http://www.w3.org/1999/xlink" version="1.1" id="mdi-sticker-check" width="24" height="24" viewBox="0 0 24 24"><path d="M18.5 2H5.5C3.6 2 2 3.6 2 5.5V18.5C2 20.4 3.6 22 5.5 22H16L22 16V5.5C22 3.6 20.4 2 18.5 2M7 12.5L8.3 11.1L10.4 13.2L15.6 8L17 9.4L10.5 16L7 12.5M15 20V18.5C15 16.6 16.6 15 18.5 15H20L15 20Z" /></svg>
